src/android-map.svg

<?xml version="1.0" encoding="utf-8"?>
<!-- Generated by IcoMoon.io -->
<!DOCTYPE svg PUBLIC "-//W3C//DTD SVG 1.1//EN" "http://www.w3.org/Graphics/SVG/1.1/DTD/svg11.dtd">
<svg version="1.1" xmlns="http://www.w3.org/2000/svg" xmlns:xlink="http://www.w3.org/1999/xlink" width="512" height="512" viewBox="0 0 512 512">
<path fill="#000000" d="M437.333 64c-2.176 0-4.396 1.369-9.176 3.207s-108.157 41.595-108.157 41.595l-128-44.802-120.531 40.531c-4.272 1.073-7.469 5.333-7.469 10.666v322.136c0 6.396 4.271 10.667 10.666 10.667 1.828 0 6.505-2.33 9.087-3.319s108.247-41.484 108.247-41.484l128 44.803 120.531-40.531c4.271-1.073 7.469-5.334 7.469-10.667v-322.136c0-6.395-4.271-10.666-10.667-10.666zM320 405.333l-128-44.802v-253.865l128 44.803v253.864z"></path>
</svg>

<?xml version="1.0" encoding="utf-8"?>
<!-- Generator: Adobe Illustrator 16.2.1, SVG Export Plug-In . SVG Version: 6.00 Build 0)  -->
<!DOCTYPE svg PUBLIC "-//W3C//DTD SVG 1.1//EN" "http://www.w3.org/Graphics/SVG/1.1/DTD/svg11.dtd">
<svg version="1.1" id="Layer_1" xmlns="http://www.w3.org/2000/svg" xmlns:xlink="http://www.w3.org/1999/xlink" x="0px" y="0px"
	 width="512px" height="512px" viewBox="0 0 512 512" enable-background="new 0 0 512 512" xml:space="preserve">
<g id="Icon_34_">
	<g>
		<g>
			<path d="M437.333,64c-2.176,0-4.396,1.369-9.176,3.207S320,108.802,320,108.802L192,64L71.469,104.531
				C67.197,105.604,64,109.864,64,115.197v322.136C64,443.729,68.271,448,74.666,448c1.828,0,6.505-2.33,9.087-3.319
				S192,403.197,192,403.197L320,448l120.531-40.531c4.271-1.073,7.469-5.334,7.469-10.667V74.666C448,68.271,443.729,64,437.333,64
				z M320,405.333l-128-44.802V106.666l128,44.803V405.333z"/>
		</g>
	</g>
</g>
</svg>
